svgs/light/comment-dots.svg

<svg xmlns="http://www.w3.org/2000/svg" viewBox="0 0 512 512"><!-- Font Awesome Pro 6.0.0-alpha2 by @fontawesome - https://fontawesome.com License - https://fontawesome.com/license (Commercial License) --><path d="M256.033 32C114.678 32 0.068 125.125 0.068 240C0.068 287.625 19.941 331.25 52.935 366.25C38.062 405.75 7.066 439.125 6.566 439.5C-0.057 446.5 -1.807 456.75 1.943 465.5C5.816 474.25 14.316 480 23.939 480C85.431 480 133.926 454.25 163.047 433.75C192.043 442.75 223.289 448 256.033 448C397.39 448 512 354.875 512 240S397.39 32 256.033 32ZM256.033 416C227.787 416 199.791 411.75 172.795 403.25C163.279 400.182 152.873 401.789 144.726 407.588L144.674 407.625C121.678 423.875 86.181 442.875 42.062 447.25C54.06 432.125 71.808 406.75 82.806 377.625L82.935 377.285C87.219 366.014 84.726 353.287 76.506 344.463L76.308 344.25C47.312 313.75 32.064 277.625 32.064 240C32.064 143 132.551 64 256.033 64C379.517 64 480.004 143 480.004 240S379.517 416 256.033 416ZM256 216C242.746 216 232 226.744 232 240C232 253.254 242.746 264 256 264S280 253.254 280 240C280 226.744 269.254 216 256 216ZM384 216C370.746 216 360 226.744 360 240C360 253.254 370.746 264 384 264S408 253.254 408 240C408 226.744 397.254 216 384 216ZM128 216C114.746 216 104 226.744 104 240C104 253.254 114.746 264 128 264S152 253.254 152 240C152 226.744 141.254 216 128 216Z"/></svg>

<svg xmlns="http://www.w3.org/2000/svg" viewBox="0 0 512 512"><!-- Font Awesome Pro 5.15.1 by @fontawesome - https://fontawesome.com License - https://fontawesome.com/license (Commercial License) --><path d="M128 216c-13.3 0-24 10.7-24 24s10.7 24 24 24 24-10.7 24-24-10.7-24-24-24zm128 0c-13.3 0-24 10.7-24 24s10.7 24 24 24 24-10.7 24-24-10.7-24-24-24zm128 0c-13.3 0-24 10.7-24 24s10.7 24 24 24 24-10.7 24-24-10.7-24-24-24zM256 32C114.6 32 0 125.1 0 240c0 47.6 19.9 91.2 52.9 126.3C38 405.7 7 439.1 6.5 439.5c-6.6 7-8.4 17.2-4.6 26S14.4 480 24 480c61.5 0 110-25.7 139.1-46.3C192 442.8 223.2 448 256 448c141.4 0 256-93.1 256-208S397.4 32 256 32zm0 384c-28.3 0-56.3-4.3-83.2-12.8l-15.2-4.8-13 9.2c-23 16.3-58.5 35.3-102.6 39.6 12-15.1 29.8-40.4 40.8-69.6l7.1-18.7-13.7-14.6C47.3 313.7 32 277.6 32 240c0-97 100.5-176 224-176s224 79 224 176-100.5 176-224 176z"/></svg>
